dhis-2/dhis-support/dhis-support-system/src/main/resources/SVGs/rdt_result_pf_positive.svg

<svg width="48" height="48" viewBox="0 0 48 48" fill="none" xmlns="http://www.w3.org/2000/svg">
<path d="M10.6499 17.803V17.805C10.2939 17.805 10.0059 17.922 9.78703 18.158C9.56833 18.393 9.45893 18.723 9.45893 19.148C9.45893 19.55 9.56753 19.867 9.78513 20.1C10.0029 20.3309 10.2809 20.4469 10.6189 20.4469C10.8919 20.4469 11.1159 20.3789 11.2929 20.2439C11.4709 20.1079 11.5989 19.902 11.6759 19.623L11.1779 19.465C11.1349 19.652 11.0629 19.788 10.9649 19.875C10.8659 19.962 10.7499 20.006 10.6129 20.006C10.4279 20.006 10.2779 19.938 10.1619 19.801C10.0459 19.664 9.98823 19.432 9.98823 19.109C9.98823 18.805 10.0469 18.585 10.1639 18.449C10.2819 18.314 10.4339 18.246 10.6229 18.246C10.7599 18.246 10.8759 18.285 10.9709 18.359C11.0669 18.436 11.1299 18.542 11.1599 18.674L11.6679 18.551C11.6099 18.346 11.5239 18.189 11.4079 18.08C11.2139 17.895 10.9619 17.803 10.6499 17.803ZM26.5677 17.805C26.4327 17.805 26.3197 17.828 26.2297 17.877C26.1427 17.925 26.0817 17.988 26.0487 18.064C26.0157 18.141 25.9997 18.257 25.9997 18.412V18.553H25.7287V18.938H25.9997V20.4039H26.4877V18.938H26.8517V18.553H26.4877V18.422C26.4877 18.328 26.5027 18.265 26.5327 18.232C26.5637 18.201 26.6147 18.182 26.6857 18.182C26.7567 18.182 26.8327 18.189 26.9097 18.209L26.9767 17.867C26.8427 17.825 26.7067 17.805 26.5677 17.805ZM16.0038 17.848V20.4019H16.5178V19.439H16.8538C17.0858 19.439 17.2638 19.428 17.3868 19.404C17.4768 19.384 17.5658 19.344 17.6518 19.283C17.7398 19.222 17.8118 19.136 17.8688 19.029C17.9258 18.922 17.9528 18.792 17.9528 18.635C17.9528 18.431 17.9048 18.267 17.8068 18.139C17.7078 18.01 17.5848 17.925 17.4388 17.887C17.3448 17.863 17.1408 17.848 16.8278 17.848H16.0038ZM23.5718 17.848V20.4019H24.0857V19.439H24.4197C24.6527 19.439 24.8297 19.428 24.9527 19.404C25.0427 19.384 25.1317 19.344 25.2187 19.283C25.3067 19.222 25.3787 19.136 25.4357 19.029C25.4917 18.922 25.5207 18.792 25.5207 18.635C25.5207 18.431 25.4707 18.267 25.3727 18.139C25.2747 18.01 25.1537 17.925 25.0077 17.887C24.9127 17.863 24.7087 17.848 24.3957 17.848H23.5718ZM16.5178 18.279H16.7678C16.9528 18.279 17.0748 18.289 17.1368 18.301C17.2198 18.317 17.2888 18.354 17.3438 18.414C17.3978 18.474 17.4238 18.549 17.4238 18.643C17.4238 18.718 17.4048 18.785 17.3648 18.842C17.3268 18.899 17.2728 18.942 17.2048 18.969C17.1368 18.997 17.0008 19.008 16.7988 19.008H16.5178V18.279ZM24.0857 18.279H24.3337C24.5187 18.279 24.6417 18.289 24.7027 18.301C24.7857 18.317 24.8557 18.354 24.9097 18.414C24.9647 18.474 24.9917 18.549 24.9917 18.643C24.9917 18.718 24.9707 18.785 24.9317 18.842C24.8927 18.899 24.8417 18.942 24.7727 18.969C24.7047 18.997 24.5697 19.008 24.3667 19.008H24.0857V18.279ZM18.1388 18.553L18.8828 20.4019H19.3218L20.0548 18.553H19.5528L19.2008 19.496C19.1828 19.548 19.1668 19.601 19.1498 19.654C19.1428 19.678 19.1258 19.733 19.0998 19.812L18.9978 19.496L18.6518 18.553H18.1388ZM8.24215 21.6409C5.89178 21.6409 4 23.5319 4 25.8829V25.9529C4 28.3038 5.89178 30.1968 8.24215 30.1968H39.7578C42.1077 30.1968 43.9997 28.3038 43.9997 25.9529V25.8829C43.9997 23.5319 42.1077 21.6409 39.7578 21.6409H8.24215ZM39.7808 23.7539C40.9697 23.7539 41.9337 24.7179 41.9337 25.9059C41.9337 27.0949 40.9697 28.0588 39.7808 28.0588C38.5928 28.0588 37.6288 27.0949 37.6288 25.9059C37.6288 24.7179 38.5928 23.7539 39.7808 23.7539ZM8.54714 24.0249H10.3202V27.6169H8.54714C7.55246 27.6169 6.75027 26.8149 6.75027 25.8199C6.75027 24.8259 7.55246 24.0249 8.54714 24.0249ZM10.8362 24.0249H25.592V27.6169H10.8362V24.0249ZM26.107 24.0249H28.562C29.557 24.0249 30.359 24.8259 30.359 25.8199C30.359 26.8149 29.557 27.6169 28.562 27.6169H26.107V24.0249ZM34.0619 24.5429C34.8199 24.5419 35.4339 25.1569 35.4339 25.9139C35.4329 26.6709 34.8189 27.2839 34.0619 27.2829C33.3069 27.2829 32.6939 26.6699 32.6929 25.9139C32.6929 25.1569 33.3059 24.5429 34.0619 24.5429Z" fill="#333333"/>
</svg>

<?xml version="1.0" encoding="UTF-8" standalone="no"?>
<!-- Created with Inkscape (http://www.inkscape.org/) -->
<svg id="svg8" xmlns:rdf="http://www.w3.org/1999/02/22-rdf-syntax-ns#" xmlns="http://www.w3.org/2000/svg" xmlns:osb="http://www.openswatchbook.org/uri/2009/osb" height="48" width="48" version="1.1" enable-background="new" xmlns:cc="http://creativecommons.org/ns#" viewBox="0 0 12.7 12.7" xmlns:dc="http://purl.org/dc/elements/1.1/">
 <title id="title4753">UIO-icon</title>
 <metadata id="metadata5">
  <rdf:RDF>
   <cc:Work rdf:about="">
    <dc:format>image/svg+xml</dc:format>
    <dc:type rdf:resource="http://purl.org/dc/dcmitype/StillImage"/>
    <dc:title>UIO-icon</dc:title>
    <dc:creator>
     <cc:Agent>
      <dc:title>Joaquín Urbano</dc:title>
     </cc:Agent>
    </dc:creator>
    <dc:rights>
     <cc:Agent>
      <dc:title>GPL</dc:title>
     </cc:Agent>
    </dc:rights>
   </cc:Work>
  </rdf:RDF>
 </metadata>
 <g id="layer1" transform="translate(0,-284.3)" fill="#333">
  <path id="text9299" d="m10.65 17.803v0.002c-0.356 0-0.644 0.117-0.8629 0.353-0.2187 0.235-0.3281 0.565-0.3281 0.99 0 0.402 0.1086 0.719 0.3262 0.952 0.2178 0.231 0.4958 0.347 0.8338 0.347 0.273 0 0.497-0.068 0.674-0.203 0.178-0.136 0.306-0.342 0.383-0.621l-0.498-0.158c-0.043 0.187-0.115 0.323-0.213 0.41-0.099 0.087-0.215 0.131-0.352 0.131-0.185 0-0.335-0.068-0.451-0.205s-0.1737-0.369-0.1737-0.692c0-0.304 0.0587-0.524 0.1757-0.66 0.118-0.135 0.27-0.203 0.459-0.203 0.137 0 0.253 0.039 0.348 0.113 0.096 0.077 0.159 0.183 0.189 0.315l0.508-0.123c-0.058-0.205-0.144-0.362-0.26-0.471-0.194-0.185-0.446-0.277-0.758-0.277zm15.918 0.002c-0.135 0-0.248 0.023-0.338 0.072-0.087 0.048-0.148 0.111-0.181 0.187-0.033 0.077-0.049 0.193-0.049 0.348v0.141h-0.271v0.385h0.271v1.466h0.488v-1.466h0.364v-0.385h-0.364v-0.131c0-0.094 0.015-0.157 0.045-0.19 0.031-0.031 0.082-0.05 0.153-0.05s0.147 0.007 0.224 0.027l0.067-0.342c-0.134-0.042-0.27-0.062-0.409-0.062zm-10.564 0.043v2.554h0.514v-0.963h0.336c0.232 0 0.41-0.011 0.533-0.035 0.09-0.02 0.179-0.06 0.265-0.121 0.088-0.061 0.16-0.147 0.217-0.254s0.084-0.237 0.084-0.394c0-0.204-0.048-0.368-0.146-0.496-0.099-0.129-0.222-0.214-0.368-0.252-0.094-0.024-0.298-0.039-0.611-0.039h-0.824zm7.568 0v2.554h0.514v-0.963h0.334c0.233 0 0.41-0.011 0.533-0.035 0.09-0.02 0.179-0.06 0.266-0.121 0.088-0.061 0.16-0.147 0.217-0.254 0.056-0.107 0.085-0.237 0.085-0.394 0-0.204-0.05-0.368-0.148-0.496-0.098-0.129-0.219-0.214-0.365-0.252-0.095-0.024-0.299-0.039-0.612-0.039h-0.824zm-7.054 0.431h0.25c0.185 0 0.307 0.01 0.369 0.022 0.083 0.016 0.152 0.053 0.207 0.113 0.054 0.06 0.08 0.135 0.08 0.229 0 0.075-0.019 0.142-0.059 0.199-0.038 0.057-0.092 0.1-0.16 0.127-0.068 0.028-0.204 0.039-0.406 0.039h-0.281v-0.729zm7.568 0h0.248c0.185 0 0.308 0.01 0.369 0.022 0.083 0.016 0.153 0.053 0.207 0.113 0.055 0.06 0.082 0.135 0.082 0.229 0 0.075-0.021 0.142-0.06 0.199s-0.09 0.1-0.159 0.127c-0.068 0.028-0.203 0.039-0.406 0.039h-0.281v-0.729zm-5.947 0.274l0.744 1.849h0.439l0.733-1.849h-0.502l-0.352 0.943c-0.018 0.052-0.034 0.105-0.051 0.158-0.007 0.024-0.024 0.079-0.05 0.158l-0.102-0.316-0.346-0.943h-0.513zm-9.8968 3.088c-2.3504 0-4.2422 1.891-4.2422 4.242v0.07c0 2.351 1.8918 4.244 4.2422 4.244h31.516c2.35 0 4.242-1.893 4.242-4.244v-0.07c0-2.351-1.892-4.242-4.242-4.242h-31.516zm31.539 2.113c1.189 0 2.153 0.964 2.153 2.152 0 1.189-0.964 2.153-2.153 2.153-1.188 0-2.152-0.964-2.152-2.153 0-1.188 0.964-2.152 2.152-2.152zm-31.234 0.271h1.7731v3.592h-1.7731c-0.9947 0-1.7969-0.802-1.7969-1.797 0-0.994 0.8022-1.795 1.7969-1.795zm2.2891 0h14.756v3.592h-14.756v-3.592zm15.271 0h2.455c0.995 0 1.797 0.801 1.797 1.795 0 0.995-0.802 1.797-1.797 1.797h-2.455v-3.592zm7.955 0.518c0.758-0.001 1.372 0.614 1.372 1.371-0.001 0.757-0.615 1.37-1.372 1.369-0.755 0-1.368-0.613-1.369-1.369 0-0.757 0.613-1.371 1.369-1.371z" transform="matrix(.26458 0 0 .26458 0 284.3)"/>
 </g>
</svg>
